!!!COM: John Bull
!!!OPR: Telluris ingens conditor
!!!OTL: [verse 7: Aurora lucis rutilat]
!!!YOR: Musica Britannica, Vol. 14; 2nd rev. ed.;
!!!YOR: John Bull, Keyboard Music 1.
!!!YOR: London
!!!YOR: John Steele and Francis Cameron (editors)
!!!YOR: p.136-137
!!!YOO: Stainer and Bell
!!!YOY: 1967
**kern	**kern	**kern	**kern	**kern
*freeV	*CF	*conseq	*guida	*CFbackground
*k[b-]	*k[b-]	*k[b-]	*k[b-]	*k[b-]
*F:	*F:	*F:	*F:	*F:
*M4/4	*M4/4	*M4/4	*M4/4	*M4/4
=1-	=1-	=1-	=1-	=1-
2r	2F	1r	4r	2F
.	.	.	4cc	.
4r	2F	.	4dd	2F
4FF	.	.	[4ff	.
=2	=2	=2	=2	=2
4C	2G	4r	4ff]	2G
4C	.	4c	4ee	.
4F	2A	4d	4dd	2A
4A	.	[4f	4cc	.
=3	=3	=3	=3	=3
2G	2B-	4f]	4b-	2B-
.	.	4e	4g	.
4F	2A	4d	2a	2A
4AA	.	4c	.	.
=4	=4	=4	=4	=4
4BB-	2G	4B-	2r	2G
4C	.	4G	.	.
4FF	2F	2A	4r	2F
4D	.	.	4ff	.
=5	=5	=5	=5	=5
4BB-	2B-	2r	4dd	2B-
4.D	.	.	4.ff	.
.	2B-	4r	.	2B-
8C	.	.	8ee	.
[4BB-	.	4f	8dd	.
.	.	.	8cc	.
=6	=6	=6	=6	=6
4BB-]	2B-	4d	4.dd	2B-
4BB-	.	4.f	.	.
.	.	.	8dd	.
4r	2A	.	2cc	2A
.	.	8e	.	.
4F	.	8d	.	.
.	.	8c	.	.
=7	=7	=7	=7	=7
4D	2F	4.d	1r	2F
4.F	.	.	.	.
.	.	8d	.	.
.	2G	2c	.	2G
8E	.	.	.	.
8D	.	.	.	.
8C	.	.	.	.
=8	=8	=8	=8	=8
4.D	2B-	1r	4r	2B-
.	.	.	4ff	.
8C	.	.	.	.
4BB-	2B-	.	4ff	2B-
4BB-	.	.	[4gg	.
=9	=9	=9	=9	=9
4F	2.c	4r	8gg]	2c
.	.	.	8ff	.
2A	.	4f	2ff	.
.	.	4f	.	2B-
4G	4B-	[4g	4ee	.
=10	=10	=10	=10	=10
4A	4c	8g]	4.ff	2A
.	.	8f	.	.
4F	4A	2f	.	.
.	.	.	8cc	.
4BB-	2G	.	4dd	2G
4C	.	4e	8cc	.
.	.	.	8b-	.
=11	=11	=11	=11	=11
4D	2A	4.f	4a	2A
4A	.	.	4r	.
.	.	8c	.	.
2G	2B-	4d	2r	2B-
.	.	8c	.	.
.	.	8B-	.	.
=12	=12	=12	=12	=12
4F	4A	4c	4r	2c
4D	4F	4r	4dd	.
4C	4G	2r	4ee	2F
4AA	4A	.	4ff#	.
=13	=13	=13	=13	=13
4r	2B-	4r	4gg	2B-
4G	.	4d	4.dd	.
4C	2A	4e	.	2A
.	.	.	8cc	.
4D	.	4f#	4a	.
=14	=14	=14	=14	=14
4GG	4r	4g	4b-	2G
4BB-	2G	4.d	4r	.
4C	.	.	2r	2G
.	.	8c	.	.
4D	4F#	4A	.	.
=15	=15	=15	=15	=15
4GG	4G	4B-	4r	2A
4F	4A	4r	4cc	.
4BB-	2B-	2r	4dd	2G
4C	.	.	4ee	.
=16	=16	=16	=16	=16
4D	2A	4r	2ff	2A
4AA	.	4c	.	.
4BB-	2G	4d	2r	2G
4C	.	4e	.	.
=17	=17	=17	=17	=17
4FF	2A	2f	4r	2A
4F	.	.	4cc	.
4BB-	2G	2r	4dd	2G
4C	.	.	4ee	.
=18	=18	=18	=18	=18
4D	4F	4r	4ff	2F
4AA	4A	4c	4.cc	.
4BB-	2G	4d	.	[2F
.	.	.	8b-	.
4C	.	4e	4g	.
=19	=19	=19	=19	=19
4FF	[1F	4f	2a	1F_
4AA	.	4.c	.	.
2BB-	.	.	2f	.
.	.	8B-	.	.
.	.	4G	.	.
=20	=20	=20	=20	=20
1FF;	1F;]	1A;	1f;	1F]
==	==	==	==	==
*-	*-	*-	*-	*-
!!!COA: Thomas Tallis
!!!CDT: ~1562-1628/3/12/|13
!!!CNT: English
!!!YEP: David Huron and Denis Collins
!!!YEN: Canada
!!!AIN: cemba; clavi; klav; organ
!!!AGN: keyboard
!!!AST: polyphony
!!!RDT: 1995 April 17
!!!YED: 1995 August 31
!!!AFR: cantus firmus canon
!!!AMT: simple quadruple
!!!EEV: 1.0
